X:12669
T:Paddy O'Carrel. GS.102
M:6/8
L:1/8
Q:120
S:George Spencer m/s, Leeds,1831
R:Jig
O:England
A:Leeds
H:1831
Z:vmp.Cherri Graebe
K:D major
"qus"(A/2G/2)  | FDD FDD | F>GF FED | AFF dEF | E>FE EAG | FDD  FDD |! F
>GF
 FED
| AFF dFF | D>ED D2 ||
a/2g/2 | fed ecd | BdB AGF |! fda eca | dB^g a2a/g/ | fdd ecc | B>dB AGF
| AFF dFF | D>ED D2 ||
